icons/physical_therapy_fill.svg

<svg width="48" height="48" viewBox="0 0 48 48" fill="none" xmlns="http://www.w3.org/2000/svg">
<path d="M23.916 27H29.9941C29.9807 27 29.9672 26.9998 29.9537 26.9995C27.9103 26.9521 26.3191 26.5917 24.9727 25.3799C24.5999 25.0443 24.275 24.669 23.9796 24.2755L22.7335 25.8332L23.916 27Z" fill="black"/>
<path fill-rule="evenodd" clip-rule="evenodd" d="M9 6C7.34315 6 6 7.34315 6 9V39C6 40.6569 7.34315 42 9 42H39C40.6569 42 42 40.6569 42 39V9C42 7.34315 40.6569 6 39 6H9ZM27.5 17C29.433 17 31 15.433 31 13.5C31 11.567 29.433 10 27.5 10C25.567 10 24 11.567 24 13.5C24 15.433 25.567 17 27.5 17ZM20.2479 29H17.3132L20.4596 32.0179L19.7675 34.3534C19.7168 34.5244 19.6434 34.6879 19.5494 34.8395L17.8995 37.4988C17.3172 38.4374 16.0842 38.7262 15.1456 38.1439C14.207 37.5616 13.9182 36.3286 14.5005 35.39L16.0087 32.9592L17.0336 29.5007L17.1606 29H14C12.8954 29 12 29.8954 12 31V38H10V31C10 28.7909 11.7909 27 14 27H17.6452C17.6125 26.9432 17.5823 26.8842 17.5547 26.8232C16.603 24.7158 17.2779 22.4694 18.0373 20.9999C18.4418 20.2172 18.9419 19.5071 19.4589 18.945C19.905 18.4598 20.6008 17.821 21.4481 17.5777C21.7192 17.4999 22.0612 17.4022 22.3802 17.3521C22.7169 17.2992 23.2725 17.2549 23.8735 17.505C24.4715 17.7539 24.8269 18.1755 25.0146 18.4284C25.1695 18.6372 25.3233 18.8934 25.4384 19.0852L25.4779 19.1509C25.6463 19.4302 25.799 19.6861 25.9404 19.923C26.2725 20.4795 26.5418 20.9308 26.8035 21.3326C27.1673 21.8911 27.4241 22.2047 27.6486 22.4068C27.9667 22.693 28.4212 22.9629 30.0464 23.0005C31.1506 23.0261 32.0251 23.9421 31.9995 25.0463C31.9743 26.1325 31.0877 26.9964 30.0078 27H34C36.2091 27 38 28.7909 38 31V38H36V31C36 29.8954 35.1046 29 34 29H25.9429L27.197 30.2375C27.3793 30.4173 27.5253 30.6305 27.6272 30.8654L29.7016 35.6488C30.141 36.6622 29.6758 37.8399 28.6624 38.2794C27.649 38.7189 26.4712 38.2536 26.0318 37.2402L24.1116 32.8125L20.2479 29Z" fill="black"/>
<path d="M23.916 27H29.9941C29.9807 27 29.9672 26.9998 29.9537 26.9995C27.9103 26.9521 26.3191 26.5917 24.9727 25.3799C24.5999 25.0443 24.275 24.669 23.9796 24.2755L22.7335 25.8332L23.916 27Z" fill="black"/>
<path fill-rule="evenodd" clip-rule="evenodd" d="M9 6C7.34315 6 6 7.34315 6 9V39C6 40.6569 7.34315 42 9 42H39C40.6569 42 42 40.6569 42 39V9C42 7.34315 40.6569 6 39 6H9ZM27.5 17C29.433 17 31 15.433 31 13.5C31 11.567 29.433 10 27.5 10C25.567 10 24 11.567 24 13.5C24 15.433 25.567 17 27.5 17ZM20.2479 29H17.3132L20.4596 32.0179L19.7675 34.3534C19.7168 34.5244 19.6434 34.6879 19.5494 34.8395L17.8995 37.4988C17.3172 38.4374 16.0842 38.7262 15.1456 38.1439C14.207 37.5616 13.9182 36.3286 14.5005 35.39L16.0087 32.9592L17.0336 29.5007L17.1606 29H14C12.8954 29 12 29.8954 12 31V38H10V31C10 28.7909 11.7909 27 14 27H17.6452C17.6125 26.9432 17.5823 26.8842 17.5547 26.8232C16.603 24.7158 17.2779 22.4694 18.0373 20.9999C18.4418 20.2172 18.9419 19.5071 19.4589 18.945C19.905 18.4598 20.6008 17.821 21.4481 17.5777C21.7192 17.4999 22.0612 17.4022 22.3802 17.3521C22.7169 17.2992 23.2725 17.2549 23.8735 17.505C24.4715 17.7539 24.8269 18.1755 25.0146 18.4284C25.1695 18.6372 25.3233 18.8934 25.4384 19.0852L25.4779 19.1509C25.6463 19.4302 25.799 19.6861 25.9404 19.923C26.2725 20.4795 26.5418 20.9308 26.8035 21.3326C27.1673 21.8911 27.4241 22.2047 27.6486 22.4068C27.9667 22.693 28.4212 22.9629 30.0464 23.0005C31.1506 23.0261 32.0251 23.9421 31.9995 25.0463C31.9743 26.1325 31.0877 26.9964 30.0078 27H34C36.2091 27 38 28.7909 38 31V38H36V31C36 29.8954 35.1046 29 34 29H25.9429L27.197 30.2375C27.3793 30.4173 27.5253 30.6305 27.6272 30.8654L29.7016 35.6488C30.141 36.6622 29.6758 37.8399 28.6624 38.2794C27.649 38.7189 26.4712 38.2536 26.0318 37.2402L24.1116 32.8125L20.2479 29Z" fill="black"/>
</svg>

<svg
  xmlns="http://www.w3.org/2000/svg"
  width="24"
  height="24"
  viewBox="0 0 24 24"
  fill="none"
  stroke="currentColor"
  stroke-width="2"
  stroke-linecap="round"
  stroke-linejoin="round"
>
  <path d="M23.916 27h6.078-.04c-2.044-.048-3.635-.408-4.981-1.62a7.7 7.7 0 0 1-.993-1.104l-1.247 1.557z" />
  <path
    fill-rule="evenodd"
    d="M9 6a3 3 0 0 0-3 3v30a3 3 0 0 0 3 3h30a3 3 0 0 0 3-3V9a3 3 0 0 0-3-3zm18.5 11a3.5 3.5 0 1 0 0-7 3.5 3.5 0 0 0 0 7m-7.252 12h-2.935l3.147 3.018-.693 2.335q-.076.258-.218.486L17.9 37.5A2 2 0 0 1 14.5 35.39l1.509-2.43 1.025-3.46.127-.5H14a2 2 0 0 0-2 2v7h-2v-7a4 4 0 0 1 4-4h3.645a2 2 0 0 1-.09-.177c-.952-2.107-.277-4.354.482-5.823a9.6 9.6 0 0 1 1.422-2.055c.446-.485 1.142-1.124 1.99-1.367.27-.078.612-.176.931-.226.337-.053.893-.097 1.494.153.598.249.953.67 1.14.923.155.21.31.465.424.657l.04.066.462.772c.332.557.602 1.008.863 1.41.364.558.621.872.846 1.074.318.286.772.556 2.397.593a2 2 0 0 1-.038 4H34a4 4 0 0 1 4 4v7h-2v-7a2 2 0 0 0-2-2h-8.057l1.254 1.238a2 2 0 0 1 .43.627l2.075 4.784a2 2 0 0 1-3.67 1.591l-1.92-4.428z"
    clip-rule="evenodd"
  />
  <path d="M23.916 27h6.078-.04c-2.044-.048-3.635-.408-4.981-1.62a7.7 7.7 0 0 1-.993-1.104l-1.247 1.557z" />
  <path
    fill-rule="evenodd"
    d="M9 6a3 3 0 0 0-3 3v30a3 3 0 0 0 3 3h30a3 3 0 0 0 3-3V9a3 3 0 0 0-3-3zm18.5 11a3.5 3.5 0 1 0 0-7 3.5 3.5 0 0 0 0 7m-7.252 12h-2.935l3.147 3.018-.693 2.335q-.076.258-.218.486L17.9 37.5A2 2 0 0 1 14.5 35.39l1.509-2.43 1.025-3.46.127-.5H14a2 2 0 0 0-2 2v7h-2v-7a4 4 0 0 1 4-4h3.645a2 2 0 0 1-.09-.177c-.952-2.107-.277-4.354.482-5.823a9.6 9.6 0 0 1 1.422-2.055c.446-.485 1.142-1.124 1.99-1.367.27-.078.612-.176.931-.226.337-.053.893-.097 1.494.153.598.249.953.67 1.14.923.155.21.31.465.424.657l.04.066.462.772c.332.557.602 1.008.863 1.41.364.558.621.872.846 1.074.318.286.772.556 2.397.593a2 2 0 0 1-.038 4H34a4 4 0 0 1 4 4v7h-2v-7a2 2 0 0 0-2-2h-8.057l1.254 1.238a2 2 0 0 1 .43.627l2.075 4.784a2 2 0 0 1-3.67 1.591l-1.92-4.428z"
    clip-rule="evenodd"
  />
</svg>
